icons/layout-2-fill.svg

<svg viewBox="0 0 24 24" fill="currentColor" xmlns="http://www.w3.org/2000/svg">
    <path d="M11 3V21H4C3.44772 21 3 20.5523 3 20V4C3 3.44772 3.44772 3 4 3H11ZM21 13V20C21 20.5523 20.5523 21 20 21H13V13H21ZM20 3C20.5523 3 21 3.44772 21 4V11H13V3H20Z"/>
</svg>

<svg xmlns="http://www.w3.org/2000/svg" viewBox="0 0 24 24">
    <g>
        <path fill="none" d="M0 0h24v24H0z"/>
        <path d="M11 3v18H4a1 1 0 0 1-1-1V4a1 1 0 0 1 1-1h7zm10 10v7a1 1 0 0 1-1 1h-7v-8h8zM20 3a1 1 0 0 1 1 1v7h-8V3h7z"/>
    </g>
</svg>
